svg/numeric_9_plus_box.svg

<svg xmlns="http://www.w3.org/2000/svg" viewBox="0 0 24 24"><path d="M21 5v14a2 2 0 0 1-2 2H5a2 2 0 0 1-2-2V5a2 2 0 0 1 2-2h14a2 2 0 0 1 2 2m-2 6h-2V9h-2v2h-2v2h2v2h2v-2h2zm-9-4H8a2 2 0 0 0-2 2v2a2 2 0 0 0 2 2h2v2H6v2h4a2 2 0 0 0 2-2V9a2 2 0 0 0-2-2M8 9h2v2H8z"/></svg>

<?xml version="1.0" encoding="UTF-8"?><!DOCTYPE svg PUBLIC "-//W3C//DTD SVG 1.1//EN" "http://www.w3.org/Graphics/SVG/1.1/DTD/svg11.dtd"><svg xmlns="http://www.w3.org/2000/svg" xmlns:xlink="http://www.w3.org/1999/xlink" version="1.1" id="mdi-numeric-9-plus-box" width="24" height="24" viewBox="0 0 24 24"><path d="M21,5V19A2,2 0 0,1 19,21H5A2,2 0 0,1 3,19V5A2,2 0 0,1 5,3H19A2,2 0 0,1 21,5M19,11H17V9H15V11H13V13H15V15H17V13H19V11M10,7H8A2,2 0 0,0 6,9V11C6,12.11 6.9,13 8,13H10V15H6V17H10A2,2 0 0,0 12,15V9C12,7.89 11.1,7 10,7M8,9H10V11H8V9Z" /></svg>
